X: 108
T: Sans regretz
C: Gaspar van Weerbeke
%%abc-version 2.0
%%abcx-abcm2ps-target-version 5.9.1 (29 Sep 2008)
%%abc-creator hum2abc beta
%%abcx-conversion-date 2022/03/06 13:05:54
%%abc-copyright Copyright 2018, Kolb, Paul
%%abc-edited-by Mair-Gruber, Roland
%%humdrum-veritas 2962431487
%%humdrum-veritas-data 2480020262
%%linebreak <none>
%%barnumbers 0
L: 1/4
M: 2/2
N: Derived from Gas0505-Sans_regretz.krn
V: 1 clef=treble
V: 2 clef=treble-8
V: 3 clef=bass
K: F
[V:1] F4 | 
[V:2] F4 | 
[V:3] F,4 | 
[V:1] F2F2 | 
[V:2] A2B2 | 
[V:3] F,2D,2 | 
[V:1] EG2F/E/ | 
[V:2] c4 | 
[V:3] C,_E,2D,/C,/ | 
[V:1] F2F2 | 
[V:2] d4 | 
[V:3] B,,4 | 
[V:1] E>FGA | 
[V:2] c4- | 
[V:3] C,>D,E,F, | 
[V:1] Gc2=B | 
[V:2] c2d2 | 
[V:3] E,F,2G, | 
[V:1] c2zc- | 
[V:2] c>def | 
[V:3] A,2G,A,- | 
[V:1] cB/A/B2 | 
[V:2] efd3/e/ | 
[V:3] A,G,/F,/G,2 | 
[V:1] A2d2 | 
[V:2] f3d | 
[V:3] F,2B,,2 | 
[V:1] cA2G/F/ | 
[V:2] ec2=B | 
[V:3] C,2D,2 | 
[V:1] EF2E | 
[V:2] cAG2 | 
[V:3] C,4 | 
[V:1] F4 | 
[V:2] F4- | 
[V:3] z2C2 | 
[V:1] z2A2 | 
[V:2] F4 | 
[V:3] C2DC- | 
[V:1] A3G/F/ | 
[V:2] z2c2 | 
[V:3] C/B,/A,/G,/F,2 | 
[V:1] AG2F/E/ | 
[V:2] c2c2 | 
[V:3] C,2C,2 | 
[V:1] D2EF | 
[V:2] B2GA | 
[V:3] G,2zF, | 
[V:1] E>CD3/C/ | 
[V:2] Gc2=B | 
[V:3] G,A,G,2 | 
[V:1] A,2zF- | 
[V:2] c2A3/F/ | 
[V:3] z2F,2 | 
[V:1] FECD- | 
[V:2] G2AB- | 
[V:3] C,2zB,,- | 
[V:1] D/C/B,/A,/B,2 | 
[V:2] BA2G | 
[V:3] B,,C,D,E, | 
[V:1] A,4 | 
[V:2] A4- | 
[V:3] F,D,2C,/B,,/ | 
[V:1] C3D | 
[V:2] A4 | 
[V:3] A,,3A,- | 
[V:1] E4 | 
[V:2] c2c2 | 
[V:3] A,G,/F,/E,2 | 
[V:1] z2F2 | 
[V:2] d3c/B/ | 
[V:3] D,4 | 
[V:1] E>FGA- | 
[V:2] c2BA | 
[V:3] A,2G,F,- | 
[V:1] AG/F/Ec | 
[V:2] c3A | 
[V:3] F,E,/D,/C,2 | 
[V:1] BA2G | 
[V:2] GAB2 | 
[V:3] zF,D,E, | 
[V:1] A2F3/G/ | 
[V:2] A2d2 | 
[V:3] F,2B,,2 | 
[V:1] A/B/AFG- | 
[V:2] c2AB- | 
[V:3] zF,2_E,- | 
[V:1] G/F/F2E | 
[V:2] B/A/G/F/G2 | 
[V:3] E,F,C,2 | 
[V:1] F4 | 
[V:2] F4 | 
[V:3] zC>B,A,- | 
[V:1] z2A3/B/ | 
[V:2] f3d | 
[V:3] A,/G,/F,/E,/D,2 | 
[V:1] cd>cc- | 
[V:2] efec | 
[V:3] C,B,,C,2 | 
[V:1] cB/A/ B/A/G/F/ | 
[V:2] d2d2 | 
[V:3] G,,2zG, | 
[V:1] E2FD- | 
[V:2] c2AB- | 
[V:3] A,2F,G,- | 
[V:1] DEFG | 
[V:2] B/G/c2=B | 
[V:3] G,E,D,2 | 
[V:1] !fermata!E4 ||  
[V:2] !fermata!c4 ||  
[V:3] !fermata!C,4 ||  
[V:1] G4 | 
[V:2] c4 | 
[V:3] C,4 | 
[V:1] G2G2 | 
[V:2] B2B3/A/ | 
[V:3] G,,4 | 
[V:1] A3G/F/ | 
[V:2] F4 | 
[V:3] D,4 | 
[V:1] EDG2- | 
[V:2] G4 | 
[V:3] C,B,,G,,2 | 
[V:1] GF/E/DC | 
[V:2] B3A- | 
[V:3] zG,,2A,,- | 
[V:1] FEDE- | 
[V:2] AGFG | 
[V:3] A,,/B,,/C,D,G,, | 
[V:1] ED2^C | 
[V:2] D2E2 | 
[V:3] B,,2A,,2 | 
[V:1] D2z2 | 
[V:2] D4 | 
[V:3] z2A,2 | 
[V:1] A3F- | 
[V:2] z2F3/G/ | 
[V:3] F,3D,- | 
[V:1] FE/D/EA- | 
[V:2] A>Bc2 | 
[V:3] D,C,/B,,/A,,2 | 
[V:1] A/B/cAB- | 
[V:2] A>Bcd | 
[V:3] zF,2B,, | 
[V:1] BA2G | 
[V:2] A2B2 | 
[V:3] F,2G,E, | 
[V:1] A>G F/E/F- | 
[V:2] A4 | 
[V:3] F,>E,C,D,- | 
[V:1] FE/D/C2 | 
[V:2] z2A2- | 
[V:3] D,/C,/D,A,,2 | 
[V:1] zE2C | 
[V:2] AG2E | 
[V:3] C,>D, E,/F,/G, | 
[V:1] F2E3/F/ | 
[V:2] D2C2 | 
[V:3] A,B,C2 | 
[V:1] GAGc | 
[V:2] C>DEF | 
[V:3] zC2B,/A,/ | 
[V:1] BA2G/F/ | 
[V:2] GA>Bc- | 
[V:3] G,F,2E,/D,/ | 
[V:1] EG2E | 
[V:2] cB/A/Gc- | 
[V:3] C,2z2 | 
[V:1] D2zC | 
[V:2] c=BcA | 
[V:3] G,2A,/G,/F,/E,/ | 
[V:1] DF2E | 
[V:2] B/A/G/F/G2 | 
[V:3] D,2zC, | 
[V:1] FA2G | 
[V:2] F2B2 | 
[V:3] D,F,2E, | 
[V:1] Ac2=B | 
[V:2] A2d2 | 
[V:3] F,A,2G, | 
[V:1] c>Ad2 | 
[V:2] c2f2 | 
[V:3] A,CB,2 | 
[V:1] c/B/A/G/BA- | 
[V:2] f>edc- | 
[V:3] F,2z2 | 
[V:1] AG/F/GA- | 
[V:2] cB/A/Bc | 
[V:3] F,2B,,A,, | 
[V:1] A/G/F2E | 
[V:2] F2G2 | 
[V:3] D,2C,2 | 
[V:1] F4 |]  
[V:2] F4 |]  
[V:3] F,,4 |]  


